!!!!SEGMENT: pl-wnifc--13846--081_anonim--piesni-polskie-i-ruskie-ludu-galicyjskiego-81-nad-woda-w-wieczornej-porze.krn
!!!kernsource:
!!!cenid: 18xx:3303
!!!COM: Anonim
!!!COM-rismID: pe30004985
!!!CDT:
!!!CNT:
!!!GTL: Pieśni polskie i ruskie ludu galicyjskiego
!!!OTL: 81. Nad wodą, w wieczornéj porze
!!!OMV: 081
!!!PDT: 1833
!!!AGN:
!!!SMS-siglum: PL-Wnifc
!!!SMS-shelfmark: 13846
!!!SMS-shelfwork: 001-081 G
!!!NIFC-rismSourceID: 1001036701
!!!NIFC-rismChildID: 1001038991
!!!NIFC-islandoraID: nifc:210326
!!!URL-pdf-islandora: https://repozytorium.nifc.pl/islandora/object/nifc%3A210326/datastream/PDF/view
!!!URL-scan:
!!!ONB-nifc:
!!!OMD: Andantino.
!!!AIN: 1 piano 1 vox
!!!key: D
**kern	**kern	**kern	**text
*part2	*part2	*part1	*part1
*staff3	*staff2	*staff1	*staff1
*I"FORTEPIAN.	*I"FORTEPIAN.	*I"GŁOS.	*
*Ipiano	*Ipiano	*Ivox	*
*ICklav	*ICklav	*ICvox	*
*IGacmp	*IGacmp	*IGsolo	*
*clefF4	*clefG2	*clefG2	*
*k[f#c#]	*k[f#c#]	*k[f#c#]	*
*D:	*D:	*D:	*
*M3/4	*M3/4	*M3/4	*
=1-	=1-	=1-	=1-
4DD/	8f#/L 8d/	8f#/	Nad
.	8g/J 8e/	8g/	wo-
2D/ 2DD/;	4a/ 4f#/	4a/	-dą,
.	4dd/ 4f#/;	4dd\;	w_wie-
=2	=2	=2	=2
4DD/	8f#/L 8d/	8f#/	-czor-
.	8g/J 8e/	8g/	-néj
2D/ 2DD/	4a/ 4f#/	4a/	po-
.	4f#/ 4d/	4f#/	-rze,
=3	=3	=3	=3
*^	*	*	*
4A/ 4AA/	4ryy	8e/L 8c#/	8e/	za
.	.	8f#/J 8d/	8f#/	gąs-
2A/	4C#\	4g/ 4e/	4g/	-ka-
.	4AA\	4b/ 4g/	4b/	-mi,
!!LO:LB:g=original
=4	=4	=4	=4	=4
!	!LO:S:s=1:note:problem=note-level slur	!	!	!
4A/	(>8D\L	8a/L 8f#/	8a/	cho-
.	8AA\J)	8g/J 8e/	8g/	-dzi-
8A/	8D\	4.f#/ 4.d/	4.f#/	-ła
8D/L	8ryy	.	.	.
8AA/	4ryy	.	.	.
8FF#/J	.	8r	8r	.
*v	*v	*	*	*
=5	=5	=5	=5
4DD/	8f#/L 8d/	8f#/	diew-
.	8g/J 8e/	8g/	-czy-
2D/ 2DD/	4a/ 4f#/	4a/	-na
.	4dd/ 4f#/	4dd\	ślicz-
=6	=6	=6	=6
4DD/	8f#/L 8d/	8f#/	-na
.	8g/J 8e/	8g/	jak
2D/ 2DD/	4a/ 4f#/	4a/	zo-
.	4f#/ 4d/	4f#/	-rze,
=7	=7	=7	=7
*^	*	*	*
4AA/ 4AAA/	4ryy	8e/L 8c#/	8e/	tak
.	.	8f#/J 8d/	8f#/	swe
!	!LO:TX:b:t=P:problem=błędne umiejscowienie główek nut	!	!	!
2AA/	4CC#\	4g/ 4e/	4g/	gąs-
.	4AAA\	4b/ 4g/	(<8.b/L	-ki
.	.	.	16a/Jk)	.
*v	*v	*	*	*
!!LO:PB:g=original
=8	=8	=8	=8
*	*	*Xtuplet	*
!	!LO:TUP:a:problem=klamra łukowa	!	!
8.AA/L 8.EE/	12a\L 12f#\	(>12a\L	wa-
.	12dd\ 12a\ 12f#\	12dd\J)	.
.	12cc#\J 12a\ 12g\ 12e\	12cc#\	bi
16AA/Jk 16AAA/	.	.	.
4.AA/ 4.DD/	4dd\ 4a\ 4f#\ 4d\	4dd\	ła
.	8r	8r	.
8r	8r	8r	.
=9	=9	=9	=9
8A\L 8D\	8f#/L 8d/	8f#/	pójdź-
8AA\	8f#/J 8d/	8f#/	-cie,
8A\	4e/ 4c#/	4e/	pójdź-
8AA\	.	.	.
8A\	4a/ 4c#/	4a/	-cie
8AA\J	.	.	.
=10	=10	=10	=10
!	!	!LO:N:vis=4	!
8A\L 8D\	8f#/L 8d/	8f#/	gąs-
8AA\J	(<16f#/L 16d/	(16f#/LL	-ki
.	16e/JJ 16c#/)	16e/JJ)	.
8A\L	4e/ 4c#/	4e/	mo-
8AA\	.	.	.
8G\	4a/ 4c#/	4a/	-je
8AA\J	.	.	.
!!LO:LB:g=original
=11	=11	=11	=11
8.A\L 8.F#\	(<16d/LL	(<16d/LL	pójdź-
.	16e/	16e/	.
.	16f#/	16f#/JJ)	.
16A\Jk 16E\	16g/|JJ)	16g/	cie
8A\L 8D\	4a/	4a/	pójdź-
8F#\	.	.	.
8A\	4f#/	4f#/	-cie
8D\J	.	.	.
=12	=12	=12	=12
*	*^	*	*
8A\L 8C#\	8g/L	4e\	8g/	do
8AA\J	(<16g/L	.	(<16g/LL	do-
.	16a/JJ)	.	16a/JJ)	.
8A\L 8D\	4.f#/	4.d\	4.f#/	mu,
8D\J	.	.	.	.
8AA/L	.	.	.	.
8FF#/J	8r	8ryy	8r	.
*	*v	*v	*	*
=13	=13	=13	=13
4DD/	8f#/L 8d/	8f#/	niech
.	8g/J 8e/	8g/	wam
2D/ 2DD/	4a/ 4f#/	4a/	po-
.	4dd\ 4f#\;	4dd\;	-wiém
!!LO:LB:g=original
=14	=14	=14	=14
4DD/	8f#/L 8d/	8f#/	tros-
.	8g/J 8e/	8g/	-ki
2D/ 2DD/	4a/ 4f#/	4a/	mo-
.	4f#/ 4d/	4f#/	-je
=15	=15	=15	=15
*	*^	*	*
4A/ 4AA/	8e/L 8c#/	2ryy	8e/	nie
.	8f#/J 8d/	.	8f#/	po
4A/ 4C#/	4g/ 4e/	.	4g/	wiédz-
4A/ 4AA/	8.b/L	4g\	8.b/L	-cie
.	16a/Jk	.	16a/Jk	.
*	*v	*v	*	*
=16	=16	=16	=16
!	!LO:TUP:a:problem=klamra łukowa	!	!
8.A\L 8.D\	12a/L 12f#/	(12a\L	ni-
.	12dd/ 12a/ 12f#/	12dd\J)	.
.	12cc#/J 12a/ 12g/ 12e|/	12cc#\	ko-
16A\Jk 16AA\	.	.	.
4.A\ 4.D\	4.dd/ 4.a/ 4.f#/ 4.d/	4.dd\	-mu
8r	8r	8r	.
==	==	==	==
*-	*-	*-	*-
!!!system-decoration: <s1>{(s2,s3)}
!!!RDF**kern: > = above
!!!RDF**kern: < = below
!!!RDF**kern: | = vertical stroke
!!!ENC: Andrzej Kubiczek
!!!END: 2021-11-11
!!!YEC: Copyright 2022 Narodowy Instytut Fryderyka Chopina (https://polishscores.org)
!!!YEM: License CC-BY-4.0 (https://creativecommons.org/licenses/by/4.0)
